!!!COM: Beethoven
!!!OTL: Acht Variationen uber das Trio "Tandeln und Scherzen" aus der Oper: Soliman oder die drei Sultaninnen von Sussmayer
!!!Variation: Variation 4 a
**function	**harm	**kern	**kern
*M3/8	*M3/8	*staff2	*staff1
*F:	*F:	*clefF4	*clefG2
*tb48	*	*k[b-]	*k[b-]
*	*	*M3/8	*M3/8
*	*	*F:	*F:
=	=	=	=
4.T	4.I	48FFFLLL	8r
.	.	48CC	.
.	.	48FFJJ	.
.	.	48AALL	.
.	.	48C	.
.	.	48FJJ	.
.	.	48FFLL	16r
.	.	48C	.
.	.	48FJJJ	.
.	.	16r	48ALLL
.	.	.	48c
.	.	.	48fJJJ
.	.	48FLLL	16r
.	.	48A	.
.	.	48cJJJ	.
.	.	16r	48aLLL
.	.	.	48cc
.	.	.	48ffJJJ
=	=	=98	=98
4.T	4.V6	8E 8G 8c	(16aaLL
.	.	.	16gg
.	.	8r	16ff
.	.	.	16ee
.	.	8r	16dd
.	.	.	16ccJJ)
=	=	=99	=99
4.T	4.V7	48CCLLL	8r
.	.	48GG	.
.	.	48CJJ	.
.	.	48ELL	.
.	.	48G	.
.	.	48B-JJ	.
.	.	48CLL	16r
.	.	48G	.
.	.	48B-JJJ	.
.	.	16r	48eLLL
.	.	.	48g
.	.	.	48b-JJJ
.	.	48B-LLL	16r
.	.	48e	.
.	.	48gJJJ	.
.	.	16r	48eeLLL
.	.	.	48gg
.	.	.	48bb-JJJ
=	=	=100	=100
4.T	4.I6	8F 8A 8d	(16dddLL
.	.	.	16ccc
.	.	8r	16bb-
.	.	.	16aa
.	.	8r	16gg
.	.	.	16ffJJ)
=	=	=101	=101
4 T	4I IV/V	48FFLLL	8r
.	.	48C	.
.	.	48FJJ	.
.	.	48cLL	.
.	.	48f	.
.	.	48aJJ	.
.	.	48FLL	16r
.	.	48c	.
.	.	48fJJJ	.
.	.	16r	48ccLLL
.	.	.	48ff
.	.	.	48aaJJJ
*	*	*clefG2	*
8T	8V2/V	48fLLL	16r
.	.	48g	.
.	.	48bJJJ	.
.	.	16r	48ddLLL
.	.	.	48gg
.	.	.	48bbJJJ
=	=	=102	=102
4.T	4.I6/V	8e 8g 8cc	(16cccLL
.	.	.	16bb
.	.	8r	16aa
.	.	.	16gg
.	.	8r	16ff
.	.	.	16eeJJ)
*	*	*clefF4	*
=	=	=103	=103
8P	8ii6/V	16FLL	(16ccLL 16dd
.	.	16f	16aa
8P	8I64/V	16G	16cc
.	.	16e	16gg
8P	8V7/V	16G	16f
.	.	16dJJ	16bJJ)
=	=	=104	=104
*	*	*^	*
4.D	4.V	16r	4.C	(4f 4dd
.	.	16GLL	.	.
.	.	16A	.	.
.	.	16BJ	.	.
.	.	8cJ	.	8e) 8cc
*	*	*v	*v	*
=	=	=105	=105
*-	*-	*-	*-
